img/control.svg

<svg width="48" height="40" viewBox="0 0 48 40" fill="none" xmlns="http://www.w3.org/2000/svg">
<path d="M33.4623 29.4195V19.689L39.0715 17.3655C43.5808 15.4978 45.7297 10.3096 43.862 5.80033C41.9942 1.29104 36.8061 -0.858087 32.2968 1.00988L1.67353 13.6945L4.20854 17.4797L0 19.2229L3.35569 27.3243L9.18442 24.91L11.7194 28.6952L25.0202 23.1857V29.4195C23.9261 30.506 23.2473 32.0104 23.2473 33.6704C23.2473 36.9754 25.9362 39.6643 29.2412 39.6643C30.9014 39.6643 32.4058 38.9856 33.4922 37.8913H48V29.4494H33.4923C33.4823 29.4394 33.4723 29.4294 33.4623 29.4195ZM4.87782 23.6496L3.67473 20.745L5.80454 19.8629L7.58861 22.5269L4.87782 23.6496ZM12.7733 25.2145L5.91929 14.98L33.373 3.60827C36.4497 2.33401 39.9892 3.80008 41.2636 6.87668C42.5379 9.95328 41.0717 13.4929 37.9952 14.7673L12.7733 25.2145ZM27.8327 22.0208L30.6497 20.854V27.8454C30.1977 27.7361 29.7264 27.6767 29.2412 27.6767C28.7561 27.6767 28.2847 27.7361 27.8327 27.8454V22.0208ZM29.2413 36.8518C27.4871 36.8518 26.0598 35.4245 26.0598 33.6703C26.0598 31.916 27.4871 30.4889 29.2413 30.4889C30.9956 30.4889 32.4228 31.916 32.4228 33.6703C32.4227 35.4246 30.9955 36.8518 29.2413 36.8518ZM35.0664 32.262H45.1876V35.079H35.0663C35.1756 34.6269 35.2351 34.1556 35.2351 33.6705C35.2351 33.1853 35.1757 32.714 35.0664 32.262Z" fill="#FF5A30"/>
</svg>

<svg width="48" height="40" fill="none" xmlns="http://www.w3.org/2000/svg"><path d="M33.462 29.42v-9.731l5.61-2.323c4.509-1.868 6.658-7.056 4.79-11.566-1.868-4.509-7.056-6.658-11.565-4.79L1.674 13.694l2.535 3.786L0 19.223l3.356 8.101 5.828-2.414 2.535 3.785 13.301-5.51v6.235a5.975 5.975 0 00-1.773 4.25 6 6 0 005.994 5.994c1.66 0 3.165-.678 4.251-1.773H48V29.45H33.492l-.03-.03zM4.878 23.65l-1.203-2.905 2.13-.882 1.784 2.664-2.711 1.123zm7.895 1.565L5.92 14.98 33.373 3.608a6.046 6.046 0 017.89 3.269 6.046 6.046 0 01-3.268 7.89L12.773 25.215zm15.06-3.194l2.817-1.167v6.991a5.984 5.984 0 00-2.817 0v-5.824zm1.408 14.83a3.185 3.185 0 01-3.181-3.18 3.185 3.185 0 013.181-3.182 3.185 3.185 0 013.182 3.181 3.185 3.185 0 01-3.182 3.182zm5.825-4.589h10.122v2.817H35.066a5.986 5.986 0 000-2.817z" fill="#FF5A30"/></svg>
